X: 21898
T: Kissing Is The Best Of A'
R: reel
M: 4/4
K: Adorian
B,G,G,B, G,G,CG,|B,G,G,B, G,G,CG,|B,G,G,B, G,G,CG,|A,A,A,A, A,A,A,A,:|
ECCE CC=FC|ECCE CC=FC|ECCE CC=FC|D_B,B,G, B,CDC:|
EA,A,E A,A,=FA,|EA,A,G A,A,=FA,|EA,A,E A,A,=FA,|G,A,A,G, A,CDC:|
ADDA DD _B2|ADDdd2dc|ADDA DD_BD|_BAGA BAGB|
ADDA DD _B2|ADDdd2 d2|dcAd cAdA|_BAGA BAGA||
BGGB GGcG|BGGB gdec|BGGB GGcG|A=FAB ~c2 BA:|
Bcdf gdec|B/c/d df g4|B/c/ddf gdec|A=FAB ~c2 BA|
Bcdf gdec|B/c/d df g2 dg|egdg cgBc|A=FAB ~c2 BA:|

